X:1
T:Title
L:1/8
Q:1/4=120
M:4/4
K:F
V:1 treble nm="Midi_1"
V:1
 C2 | A2 c2 d2"^Descant to AMNS 291" e2 | f2 ^c2 d2 A2 | B2 c2 d2 A2 | (c2 B2) A2 || c2 | %6
w: O|bles- sed is that|land of God where|saints a- bide for|ev * er;|where|
 A2 c2 d2 e2 | ^c2 e2 d2 =c2 | c2 =B2 A2 G2 | (de f2) e2 || G2 | G3 G c2 A2 | A3 A d2 A2 | %13
w: gol- den fields spread|far and broad, where|flows the cry- stal|riv * * er:||* * * the|strains of all with|
 B2 B2 c2 (d_e) | f4 f2 || (f=e) | d2 e2 f2 d2 | g2 f2 e2 d2 | %18
w: ours to- day are *|blend- ing;|thrice *|bles- sed is that|har- vest song which|
 d2 A2"^Descant by Andrew Sims \nto harmony by Noel Rawsthorne\n\n18 September 2018" B2 d2 | %19
w: ne- ver hath an|
 (cd e2) f2 |] %20
w: end * * ing.|

